X:16
T:Tenpenny Bit, The
T:Three Little Drummers, The
R:jig
Z:id:hn-jig-16
M:6/8
K:Ador
eAA eAA|BAB GBd|eAA eAA|def gfg|eAA eAA|BAB GBd|~e3 gdB|BAG A3:|
|:eaa aga|bab age|eaa aga|bgf ~g3|eaa aga|bab ged|~e3 gdB|BAG A3:|
P:version 2 and variations
|:eAA eAA|~B3 GBd|eAA eAA|def gag|eAA eAA|BAB GBd|def gdB|BAG A3:|
|:eaa aga|~b3 ged|eaa aga|bgf g2d|eaa aga|bab ged|ede gdB|BAG A3:|
<end>
<start>
